X:1
T:Maggie's Waltz Square
T:Maggie's Waltz Square
T:Colin Hume
C:Colin Hume
L:1/8
M:3/4
K:C
V:1 treble 
V:1
 Ec cB BA | AG GF FE | E2 ^F2 ^G2 | A2 E4 | Fd dc cB | BA A^G GB | A2 E2 CD | E6 | Ec cB BA | %9
 A2 G2 ^F2 | GB BA AG | G2 ^F2 E2 | ^DE ^F4 | E^F G4 | AB c2 A2 | B6 | Bd dc cB | B2 A4 | %18
 Ac cB BA | A2 G4 | Ac cB BA | Bd dc cB | c2 AB cd | e6 | fe d2 f2 | e2 A4 | dc B2 d2 | c2 e4 | %28
 fe d2 f2 | ed c2 e2 | dc cB Bc | A6 || fe d2 f2 | e2 A4 | dc B2 d2 | c2 E4 | FE D2 F2 | ED C2 E2 | %38
 DE ^GB eb | a6 || %40

